X:101
T:ROBGRNY- Robin and Gronny
S:F. Kidson, JFSS #9, 1906
Q:1/4=100
L:1/8
M:6/8
K:A dorian
D|G3/2 F/ G A3/2 G/ A|B/ E3/2 EE2D|G3/2 F/ G A G A|\
B E3/2 D/E2D|G3/2 F/ G A3/2 G/ A|B3/2 A/ B .e2A/ B/|\
c3/2 B/ A B2F|D3/2 E/ DA2e/ d/|c3/2 B/ A E3/2 A/ ^G|(A3A2)|]

